Newaita/actions/symbolic/pan-end-symbolic.svg

<svg height="16" viewBox="0 0 16 16" width="16" xmlns="http://www.w3.org/2000/svg"><path d="m11.867188 8.046875c0 .203125-.097657.398437-.257813.527344l-6.578125 5.265625c-.445312.359375-1.109375.039062-1.109375-.535156v-10.523438c0-.574219.664063-.894531 1.109375-.535156l6.578125 5.265625c.164063.128906.257813.324219.257813.535156zm0 0" fill="#424242"/></svg>

<?xml version="1.0" encoding="UTF-8"?>
<svg xmlns="http://www.w3.org/2000/svg" xmlns:xlink="http://www.w3.org/1999/xlink" width="16px" height="16px" viewBox="0 0 16 16" version="1.1">
<g id="surface1">
<path style=" stroke:none;fill-rule:nonzero;fill:rgb(25.882354%,25.882354%,25.882354%);fill-opacity:1;" d="M 11.867188 8.046875 C 11.867188 8.25 11.769531 8.445312 11.609375 8.574219 L 5.03125 13.839844 C 4.585938 14.199219 3.921875 13.878906 3.921875 13.304688 L 3.921875 2.78125 C 3.921875 2.207031 4.585938 1.886719 5.03125 2.246094 L 11.609375 7.511719 C 11.773438 7.640625 11.867188 7.835938 11.867188 8.046875 Z M 11.867188 8.046875 "/>
</g>
</svg>
